logos/atomicojs-icon.svg

<?xml version="1.0" encoding="UTF-8"?>
<svg width="256px" height="257px" viewBox="0 0 256 257" version="1.1" xmlns="http://www.w3.org/2000/svg" preserveAspectRatio="xMidYMid">
    <title>Atomico</title>
    <g>
        <path d="M129.046519,33.8994647 C116.629886,60.8328479 122.311709,92.6504907 143.282878,113.62166 C164.254048,134.59283 196.071691,140.274653 223.005074,127.85802 C225.597699,144.937276 224.226975,162.384025 218.998922,178.848841 C213.703901,195.41264 204.614031,210.503144 192.462281,222.922523 L191.38214,224.011388 C186.014156,229.379371 180.116976,234.190664 173.782783,238.374977 C161.566579,246.437917 147.882409,252.016749 133.510979,254.793192 C112.163066,258.934963 90.0721788,256.797981 69.9139885,248.641079 C63.0986406,245.862865 56.5750358,242.416841 50.4385897,238.35341 C37.7369619,229.952518 26.860359,219.075915 18.4594671,206.374287 C10.4049535,194.165227 4.83172784,180.490488 2.05742849,166.129443 C-2.08370402,144.779277 0.0551674006,122.686346 8.21493279,102.527061 C10.9857716,95.7089093 14.4245633,89.1817069 18.4810345,83.0408781 C27.6898173,69.1171141 39.8665458,57.4044013 54.1374057,48.7432557 C69.078591,39.7211544 85.9250528,34.323565 103.327346,32.9828485 C111.907317,32.3070764 120.536423,32.6146126 129.046519,33.8994647 Z M213.790385,250.129232 L213.822736,250.140016 C207.282545,253.10563 200.180486,254.628288 192.999372,254.604476 C185.824835,254.620853 178.730623,253.094623 172.197576,250.129232 L213.790385,250.129232 Z M230.316436,238.078425 C229.771858,238.687705 229.259632,239.253851 228.666527,239.846955 C227.041489,241.468414 225.308536,242.977993 223.479558,244.365334 L176.958588,244.376118 C179.929503,242.418872 182.857283,240.299871 185.650267,238.078425 L230.316436,238.078425 Z M238.447361,226.033009 C237.395689,228.216118 236.188394,230.320776 234.834815,232.330702 L234.850991,232.346878 L192.363133,232.346878 C193.48464,231.311641 194.627714,230.211701 195.733045,229.10637 C196.730539,228.108876 197.744209,227.095206 198.682393,226.049185 L238.447361,226.033009 Z M242.469689,213.987594 C242.051478,216.122501 241.494943,218.227967 240.803604,220.290678 L240.830564,220.29607 L203.734566,220.29607 C205.406042,218.257947 207.018209,216.138946 208.549497,213.992986 L242.469689,213.987594 Z M243.375522,201.942178 C243.413265,202.670079 243.424048,203.42494 243.440224,204.163625 C243.445616,205.516982 243.380913,206.886514 243.278468,208.229087 L243.300036,208.250655 L212.361542,208.239871 C213.644805,206.190964 214.890324,204.071963 216.049574,201.942178 L243.375522,201.942178 Z M241.375141,189.902155 C241.985529,191.966865 242.462791,194.068617 242.803984,196.194455 L242.836336,196.205239 L219.004314,196.205239 C219.98024,194.15094 220.913032,192.031939 221.770338,189.902155 L241.375141,189.902155 Z M236.015632,177.856739 C237.25657,179.874468 238.353834,181.977106 239.299275,184.14904 L223.889339,184.14904 C224.606456,182.083957 225.264263,179.970348 225.868152,177.856739 L236.015632,177.856739 Z M228.18126,168.081297 C229.272983,169.146603 230.316141,170.260354 231.307603,171.419146 L231.888,172.109 L227.367089,172.130583 L227.918656,169.422272 C228.00872,168.972751 228.096787,168.525226 228.18126,168.081297 Z M255.927772,60.103905 C256.113718,64.0008768 255.940447,67.9066926 255.410153,71.7718904 L201.507727,125.674316 C197.64253,126.20461 193.736714,126.37788 189.839742,126.191935 L255.927772,60.103905 Z M252.44463,42.2352805 C253.44571,45.1003391 254.238578,48.0339517 254.817049,51.0132288 L180.743674,125.086604 C177.764457,124.507874 174.830863,123.715011 171.965726,122.714185 L252.44463,42.2352805 Z M251.959363,85.4025129 C245.537387,102.393913 232.124358,115.806942 215.132958,122.228918 L251.959363,85.4025129 Z M245.338159,28.0331208 C246.854147,30.2943863 248.221184,32.6520289 249.430581,35.0910658 L164.810727,119.710919 C162.373297,118.499743 160.017446,117.130901 157.758174,115.613105 L245.338159,28.0331208 Z M235.481838,16.5592424 C236.168402,17.1882928 236.842384,17.8335187 237.503786,18.4949202 C238.715157,19.7062915 239.867218,20.9518112 240.959968,22.2314793 L151.961925,111.229523 C150.682256,110.136773 149.436737,108.984712 148.225365,107.773341 C147.560369,107.108345 146.915143,106.434362 146.289688,105.751393 L235.481838,16.5592424 Z M223.042817,7.66806505 C225.412015,8.95762969 227.695701,10.398441 229.879696,11.9815532 L141.695823,100.165426 C140.117483,97.9758771 138.682064,95.6867706 137.39851,93.3123717 L223.042817,7.66806505 Z M207.627489,1.75319446 C210.510537,2.44611574 213.341102,3.34159063 216.098101,4.43294895 L134.15261,86.3784396 C133.061061,83.6215088 132.165582,80.7909296 131.472856,77.9078273 L207.627489,1.75319446 Z M198.914243,0.286608494 L130.022446,69.1784057 C129.67184,65.4999075 129.642974,61.7978268 129.936176,58.1143087 L187.850146,0.200338732 C191.533658,-0.0930184582 195.235753,-0.0641522258 198.914243,0.286608494 Z M175.421908,2.44874442 L132.17919,45.6914629 C138.200585,24.8015249 154.53197,8.47013992 175.421908,2.44874442 Z" fill="#000000"></path>
    </g>
</svg>

<svg preserveAspectRatio="xMidYMid" viewBox="0 0 256 257" xmlns="http://www.w3.org/2000/svg">
  <path d="M129.047 33.9c-12.417 26.933-6.735 58.75 14.236 79.722 20.971 20.97 52.789 26.653 79.722 14.236a112.632 112.632 0 0 1-4.006 50.99 111.617 111.617 0 0 1-26.537 44.075l-1.08 1.088a112.866 112.866 0 0 1-17.6 14.364 111.504 111.504 0 0 1-40.271 16.418 112.45 112.45 0 0 1-63.597-6.152 111.527 111.527 0 0 1-19.475-10.288 113.235 113.235 0 0 1-31.98-31.979A111.481 111.481 0 0 1 2.057 166.13a112.45 112.45 0 0 1 6.158-63.602A111.55 111.55 0 0 1 18.48 83.041a113.105 113.105 0 0 1 35.656-34.298 111.77 111.77 0 0 1 49.19-15.76 112.9 112.9 0 0 1 25.72.916Zm84.743 216.23.033.01a50.022 50.022 0 0 1-20.824 4.464 50.052 50.052 0 0 1-20.801-4.475h41.592Zm16.526-12.052a41.926 41.926 0 0 1-1.65 1.769 50.86 50.86 0 0 1-5.186 4.518l-46.521.011a120.691 120.691 0 0 0 8.691-6.298h44.666Zm8.131-12.045a50.548 50.548 0 0 1-3.612 6.298l.016.016h-42.488a118.02 118.02 0 0 0 3.37-3.24c.998-.998 2.011-2.012 2.95-3.058l39.764-.016Zm4.023-12.045a50.204 50.204 0 0 1-1.666 6.303l.027.005h-37.096a118.603 118.603 0 0 0 4.814-6.303l33.92-.005Zm.906-12.046c.037.728.048 1.483.064 2.222a51.028 51.028 0 0 1-.162 4.065l.022.022-30.938-.011a120.082 120.082 0 0 0 3.688-6.298h27.326Zm-2-12.04a50.326 50.326 0 0 1 1.428 6.292l.032.011h-23.832a113.683 113.683 0 0 0 2.766-6.303h19.605Zm-5.36-12.045a50.44 50.44 0 0 1 3.283 6.292h-15.41a118.346 118.346 0 0 0 1.98-6.292h10.147Zm-7.835-9.776a50.884 50.884 0 0 1 3.127 3.338l.58.69-4.52.022.55-2.709c.09-.45.179-.897.263-1.34Zm27.747-107.977a63.556 63.556 0 0 1-.518 11.668l-53.902 53.902c-3.865.53-7.771.704-11.668.518l66.088-66.088Zm-3.483-17.869a63.038 63.038 0 0 1 2.372 8.778l-74.073 74.074a63.114 63.114 0 0 1-8.778-2.373l80.479-80.479Zm-.486 43.168a63.29 63.29 0 0 1-36.826 36.826l36.826-36.826Zm-6.62-57.37a62.672 62.672 0 0 1 4.092 7.058l-84.62 84.62a62.603 62.603 0 0 1-7.053-4.098l87.58-87.58Zm-9.857-11.474a64.732 64.732 0 0 1 5.478 5.672l-88.998 88.999a64.732 64.732 0 0 1-5.672-5.479l89.192-89.192Zm-12.44-8.89a62.824 62.824 0 0 1 6.838 4.313l-88.184 88.183a62.748 62.748 0 0 1-4.297-6.853l85.644-85.644Zm-15.415-5.916a63.038 63.038 0 0 1 8.471 2.68l-81.945 81.945a62.977 62.977 0 0 1-2.68-8.47l76.154-76.155ZM198.914.287l-68.892 68.891a63.58 63.58 0 0 1-.086-11.064L187.85.2a63.473 63.473 0 0 1 11.064.087Zm-23.492 2.162L132.179 45.69a63.229 63.229 0 0 1 43.243-43.24Z"/>
</svg>
